X:1
T:I Want to See Jesus, Don’t You?
T:I Want to See Jesus, Don’t You?
T:Kem Geary Bottorf
T:Ada Blenkhorn, 1915
T:Public Domain Courtesy of the Cyber Hymnal™
T:Public Domain Courtesy of the Cyber Hymnal™
C:Kem Geary Bottorf
Z:Public Domain
Z:Courtesy of the Cyber Hymnal™
%%score ( 1 2 ) ( 3 4 )
L:1/8
Q:1/4=78
M:6/8
K:A
V:1 treble 
V:2 treble 
V:3 bass 
V:4 bass 
V:1
 [CE]/[CE]/ | [CE]>[A,C][CE] [CA]2 [Ec]/[DB]/ | [CA]2 [DA] [CE]2 [CE]/[CE]/ | %3
w: 1.~There is|One loved me so that for|me He died, He’s my|
w: 2.~When I’m|wea- ry and faint, He is|al- ways near, With His|
w: 3.~Ho- ly|an- gels keep watch o’er me|thro’ the night, And each|
w: 4.~He is|fair- er than li- ly or|rose to me, And His|
w: 5.~There’s a|place for my soul that He|doth pre- pare, And its|
 [CA]>[CA][CA] [^DA]>[DG][DA] | [DB]3- [DB]2 [DE]/[DE]/ | [CE]>[A,C][CE] [CA]2 [Ec]/[DB]/ | %6
w: dear, pre- cious Sav- ior so|true; * On the|cross for my sins He was|
w: joy He my strength doth re-|new; * And He|com- forts my heart, speak- ing|
w: morn- ing He guards me a-|new; * In the|smile of His love doth my|
w: bless- ings fall soft as the|dew; * O my|heart, how it longs His dear|
w: beau- ty by faith I can|view; * First of|all, when I en- ter that|
 [CA]2 [Ec] !fermata![Ee]2 [Fd] | [Ec]>[Ec][Ec] [Ec]<[CA][DB] | A3- [CA]2 ||"^Refrain" [Ec] | %10
w: cru- ci- fied; I|want to see Je- sus, don’t|you? *||
w: words of cheer; I|want to see Je- sus, don’t|you? *||
w: soul de- light: I|want to see Je- sus, don’t|you? I||
w: face to see: I|want to see Je- sus, don’t|you? ~||
w: man- sion fair, I|want to see Je- sus, don’t|you? *||
 [Ae]>[Ae][Ae] [Ac]<[Ac][EA] | c3- [Ec]2 [Cc] | [Cc]>[Cc][Cc] [^DB]>[DA][DF] | %13
w: |||
w: |||
w: want to see Je- sus, don’t|you? ~ ~|* ior so faith- ful and|
w: ~ ~ ~ ~ ~ ~|~ don’t you?|* ~ ~ ~ ~ so|
w: |||
 B3- [=DB]2 [DE]/[DE]/ | [CE]>[A,C][CE] [CA]2 [Ec]/[DB]/ | %15
w: ||
w: ||
w: true; ~ ~ When|* * the strand of that|
w: faith- and true; ~|* * ~ ~ ~ ~|
w: ||
 [CA]2 [Ec] !fermata!e2 !fermata![Fd]/[Fd]/ | [Ec]>[Ec][Ec] [Ec]<[CA][DB] | A3- [CA]2 |] %18
w: |||
w: |||
w: love- bright land, O I|want to see Je- sus, don’t|you? *|
w: ~ ~ ~ ~ ~|~ ~ ~ ~ ~ ~|~ you?|
w: |||
V:2
 x | x6 | x6 | x6 | x6 | x6 | x6 | x6 | C2 D x2 || x | x6 | EAF x3 | x6 | E>E^D x3 | x6 | %15
w: |||||||||||||||
w: |||||||||||||||
w: |||||||||||* My Sav-||* I reach||
w: |||||||||||* ~ ~||* ~ ~||
 x3 (E=G) x | x6 | C2 D x2 |] %18
w: |||
w: |||
w: |||
w: |||
V:3
 [A,,A,]/[A,,A,]/ | [A,,A,]>[A,,E,][A,,A,] [A,,E,]2 [A,,E,]/[A,,E,]/ | %2
 [A,,E,]2 [A,,F,] [A,,A,]2 [A,,A,]/[A,,A,]/ | [F,A,]>[F,A,][F,A,] [B,,F,]>[B,,F,][F,B,] | %4
 [E,G,]3- [E,G,]2 [E,G,]/[E,G,]/ | [A,,A,]>[A,,E,][A,,A,] [A,,E,]2 [A,,E,]/[A,,E,]/ | %6
 A,2 A, !fermata![C,A,]2 [D,A,] | [E,A,]>[E,A,][E,A,] [E,A,]<[E,A,][E,G,] | (A,2 F, [A,,E,]2) || %9
 A, | [A,C]>[A,C][A,C] [A,E]<[A,E][A,C] | A,3- A,2 A, | [F,A,]>[F,A,][F,A,] [B,,A,]>[B,,F,][A,B,] | %13
 [G,B,]>[G,B,][F,A,] [E,G,]2 [E,G,]/[E,G,]/ | (A,>E,)[A,,A,] [A,,E,]2 [A,,E,]/[A,,E,]/ | %15
 A,2 A, !fermata![C,A,]2 !fermata![D,A,]/[D,A,]/ | [E,A,]>[E,A,][E,A,] [E,A,]<[E,A,][E,G,] | %17
 (A,2 F, [A,,E,]2) |] %18
V:4
 x | x6 | x6 | x6 | x6 | x6 | A,2 A, x3 | x6 | A,,3- x2 || A, | x6 | A,3- A,2 A, | x6 | x6 | %14
 A,,2 x4 | A,2 A, x3 | x6 | A,,3- x2 |] %18

